icons/svg/text-to-speech-off.svg

﻿<?xml version="1.0" encoding="utf-8"?>
<!DOCTYPE svg PUBLIC "-//W3C//DTD SVG 1.1//EN" "http://www.w3.org/Graphics/SVG/1.1/DTD/svg11.dtd">
<svg xmlns="http://www.w3.org/2000/svg" xmlns:xlink="http://www.w3.org/1999/xlink" version="1.1" baseProfile="full" width="24" height="24" viewBox="0 0 24.00 24.00" enable-background="new 0 0 24.00 24.00" xml:space="preserve">
	<path fill="#000000" fill-opacity="1" stroke-width="0.2" stroke-linejoin="round" d="M 2,5.26848L 3.27711,4L 20,20.7229L 18.7315,22L 13.3836,16.652C 12.5458,18.3494 10.929,19.5934 9,19.917L 9,22L 7,22L 7,19.917C 4.16229,19.441 2.00001,16.973 2.00001,14L 4.00001,14C 4.00001,16.2092 5.79086,18 8,18C 9.82331,18 11.3617,16.7801 11.8434,15.1119L 10,13.2685L 10,14C 10,15.1046 9.10458,16 8.00001,16C 6.89544,16 6.00001,15.1046 6.00001,14L 6.00001,9.26848L 2,5.26848 Z M 21.4142,9.41422L 17.1716,13.6569L 18.176,10L 14,10C 12.8954,10 12,9.10457 12,8L 12,4.00002C 12,2.89545 12.8954,2.00003 14,2.00003L 20,2.00003C 21.1046,2.00003 22,2.89545 22,4.00002L 22,8C 22,8.55229 21.7761,9.05229 21.4142,9.41422 Z "/>
</svg>

<svg xmlns="http://www.w3.org/2000/svg" version="1.1" baseProfile="full" width="24" height="24" viewBox="0 0 24.00 24.00" xml:space="preserve"><path fill="#000" fill-opacity="1" stroke-width=".2" stroke-linejoin="round" d="M2 5.268L3.277 4 20 20.723 18.732 22l-5.348-5.348c-.838 1.697-2.455 2.94-4.384 3.265V22H7v-2.083C4.162 19.44 2 16.973 2 14h2c0 2.21 1.79 4 4 4 1.823 0 3.362-1.22 3.843-2.888L10 13.268V14c0 1.105-.895 2-2 2s-2-.895-2-2V9.268l-4-4zm19.414 4.146l-4.242 4.243L18.176 10H14c-1.105 0-2-.895-2-2V4c0-1.105.895-2 2-2h6c1.105 0 2 .895 2 2v4c0 .552-.224 1.052-.586 1.414z"/></svg>
